X:1
T:Title
%%score { 1 | 2 } { 3 | 4 }
L:1/8
Q:1/4=106
M:4/4
K:Eb
V:1 treble nm="Grand Piano, Soprano"
V:2 treble 
V:3 bass nm="Choir Pad, Bass"
V:4 bass 
V:1
 G2 F2 E2 c2 | B2 B2 A2 G2 | G2 =A2 B2 e2 | d2 c2 c2 B2 | =A2 G2 G2 G2 | _G2 =G6 | D2 E2 F2 G2 | %7
w: By~Joseph~Barnby,~1872 * * *|||||||
 c2 B2 A2 G2 | F2 G2 =A2 B2 | e2 c2 c2 B2 | B2 e2 B2 AG | F2 E6- | E2 z2 z4 |] %13
w: ||||||
V:2
 E2 D2 z2 E2 | _D2 D2 C2 B,2 | B,2 C2 B,2 C2 | D2 ED E2 D2 | C2[K:bass] =B,2 _B,2 =A,2 | D2 D6 | %6
 =B,2[K:treble] C2 D2 E2 | E2 E2 D2 E2 | D2 E2 E2 D2 | G2 E2 E2 D2 | F2 E2 F2 C2 | D2 z2 z4 | z8 |] %13
V:3
 B,2 A,2 G,2 A,2 | E,2 E,2 E,2 E,2 | G,2 F,2 F,2 F,2 | B,2 B,2 =A,2 B,2 | E2 D2 D2 D2 | %5
 =A,2[K:bass] =B,6 | G,2 G,2 F,2 E,2 | F,2 F,2 B,2 B,2 | B,2 B,2 C2 B,2 | B,2 B,G, =A,2 B,2 | %10
 D2 E2 _D2 CB, | A,2 G,6- | G,2 z2 z4 |] %13
V:4
 E,2 B,,2 C,2 C,2 | G,,2 A,,2 C,2 z2 | E,2 E,2 D,2 =A,,2 | B,,2 F,2 F,2 B,,2 | C,2 D,2 D,2 D,2 | %5
 D,2 G,,6 | G,,2 C,2 C,2 C,2 | A,,2 B,,2 B,,2 E,2 | B,,2 E,2 C,2 G,2 | E,2 F,2 F,2 z2 | %10
 A,2 G,2 G,,2 A,,2 | B,,2 E,6- | E,2 z2 z4 |] %13

